third_party/noto/noto_2/emoji_u1f50a.svg

<svg enable-background="new 0 0 128 128" version="1.1" viewBox="0 0 128 128" xmlns="http://www.w3.org/2000/svg"><g fill="none" stroke="#B0BEC5" stroke-linecap="round" stroke-miterlimit="10" stroke-width="5"><path d="m112.49 81.89c13.31-18.03 12.38-43.61-3.44-60.65-15.82-17.05-41.26-19.89-60.23-7.95"/><path d="m105.14 76.96"/><path d="m102.67 71.15c7.66-12.47 6.45-29.03-4-40.28s-26.87-13.71-39.87-6.99"/><path d="m91.2 37.8"/><path d="m92.47 59.64c2.11-6.45 0.76-13.82-4.17-19.14-4.94-5.32-12.19-7.22-18.78-5.59"/></g><path d="m93.43 98.52s-23.66-6.21-41.21 10.42c-7.55 7.16-12.89 12.47-14.18 13.76-4.03 4.03-14.4 2.96-24.47-7.11s-11.63-22.1-7.6-26.12c0.6-0.6 7.34-6.59 14.82-14.5 7.99-8.46 6.55-20.27 7.06-27.56 0.61-8.76 2.22-12.23 2.22-12.23l63.36 63.34z" fill="#8CAFBF"/><ellipse transform="matrix(.7071 -.7071 .7071 .7071 -29.172 63.246)" cx="61.76" cy="66.84" rx="17.92" ry="44.8" fill="#54646D"/><path d="m80.73 63.64s-17.36 13.61-8.17 32.67l-32.19-26.62-12.4-26.81 2.11-7.71 10.15-2.5 15.66 7.83 18.54 13.67 6.3 9.47z" fill="#2C3640"/><path d="m43.92 70.01 8.7-5.97 12.1 12.1-5.22 9.28c-9.42-7.4-15.58-15.41-15.58-15.41z" fill="#8CAFBF"/><ellipse transform="matrix(.7071 -.7071 .7071 .7071 -32.377 62.014)" cx="58.67" cy="70.09" rx="4.06" ry="8.56" fill="#B2DFEC"/><path d="m23.59 79.02c3.34-4.36 3.6-6.55 4.73-11.93 3.19 6.97 8.41 13.99 14.48 18.67-2.69 0.92-3.01-0.96-5.51 0.4-2.08 1.13-3.99 2.54-5.85 4.01-4.22 3.31 1.9-2.03-1.8 1.75-0.6 0.62-6.05 6.37-6.05 6.37s-3.31-0.57-4.27-2.13c-0.58-0.95-2.13-8.11-2.13-8.11s5.41-7.74 6.4-9.03z" fill="#B2DFEC"/><path d="m23.57 122.75c-0.04-0.01-0.09-0.01-0.15-0.03-0.01 0-0.02 0-0.03-0.01-0.01 0-0.03-0.01-0.05-0.01 0.13 0.06 0.26 0.12 0.38 0.18l-0.1-0.13c-0.02 0.01-0.03 0-0.05 0z" fill="#8CAFBF"/><path d="m53.6 107.7c-0.45 0.39-0.91 0.79-1.38 1.24 0.46-0.43 0.92-0.84 1.38-1.24z" fill="#8CAFBF"/><path d="m20.46 122.22c-0.07-0.01-0.13-0.02-0.18-0.03l0.18 0.03z" fill="#738A97"/><path d="m21.27 122.36c-0.28-0.05-0.56-0.09-0.81-0.14 0.23 0.04 0.5 0.09 0.81 0.14z" fill="#738A97"/><path d="m20.05 122.15c-0.12-0.02-0.23-0.04-0.31-0.05 0.09 0.02 0.19 0.03 0.31 0.05z" fill="#738A97"/><path d="m20.28 122.19c-0.08-0.01-0.16-0.03-0.23-0.04 0.07 0.02 0.14 0.03 0.23 0.04z" fill="#738A97"/><path d="m22.6 122.59c-0.13-0.02-0.25-0.04-0.37-0.06 0.13 0.01 0.25 0.04 0.37 0.06z" fill="#738A97"/><path d="m23.17 122.68c-0.16-0.03-0.35-0.06-0.57-0.1 0.18 0.04 0.37 0.07 0.57 0.1z" fill="#738A97"/><path d="m21.92 122.47c-0.24-0.04-0.46-0.08-0.65-0.11 0.22 0.04 0.44 0.07 0.65 0.11z" fill="#738A97"/><path d="m22.23 122.52c-0.1-0.02-0.2-0.03-0.31-0.05 0.1 0.02 0.21 0.04 0.31 0.05z" fill="#738A97"/><path d="m19.6 122.08c-0.04-0.01-0.06-0.01-0.08-0.01 0.02 0 0.05 0 0.08 0.01z" fill="#738A97"/><path d="m54.91 106.65c-0.43 0.33-0.86 0.67-1.3 1.05 0.42-0.37 0.86-0.7 1.3-1.05z" fill="#738A97"/><path d="m23.17 122.68c0.06 0.01 0.12 0.02 0.17 0.03-0.06-0.01-0.12-0.02-0.17-0.03z" fill="#738A97"/><path d="m19.74 122.1c-0.06-0.01-0.1-0.02-0.14-0.02 0.04 0.01 0.09 0.01 0.14 0.02z" fill="#738A97"/><path d="m19.53 122.07c-0.02-0.01-0.02-0.01 0 0z" fill="#738A97"/><path d="m23.57 122.75c0.02 0 0.03 0.01 0.05 0.01 0 0-0.02-0.01-0.05-0.01z" fill="#738A97"/><path d="m23.34 122.71c0.02 0 0.03 0.01 0.05 0.01-0.02 0-0.04-0.01-0.05-0.01z" fill="#738A97"/><path d="m23.38 122.72c0.01 0 0.02 0 0.03 0.01-0.01-0.01-0.02-0.01-0.03-0.01z" fill="#738A97"/><path d="m23.41 122.72c0.07 0.01 0.12 0.02 0.15 0.03-0.05-0.01-0.09-0.02-0.15-0.03z" fill="#738A97"/><path d="m32.96 124.82c-0.22 0.02-0.44 0.04-0.66 0.04 0.23 0 0.45-0.02 0.66-0.04z" fill="#427687"/><path d="m37.32 123.31-0.21 0.15 0.21-0.15z" fill="#427687"/><path d="m36.28 123.95c-0.05 0.02-0.1 0.04-0.14 0.06 0.04-0.02 0.09-0.04 0.14-0.06z" fill="#427687"/><path d="m35.34 124.33c-0.12 0.04-0.25 0.08-0.37 0.12 0.13-0.04 0.25-0.08 0.37-0.12z" fill="#427687"/><path d="m31.94 124.87c-0.48 0-0.98-0.01-1.49-0.06 0.51 0.04 1.01 0.06 1.49 0.06z" fill="#427687"/><path d="m34.19 124.64c-0.21 0.04-0.43 0.08-0.66 0.11 0.23-0.03 0.45-0.07 0.66-0.11z" fill="#427687"/><path d="m52.36 108.82c-0.05 0.04-0.09 0.08-0.14 0.12 0.05-0.04 0.1-0.08 0.14-0.12z" fill="#427687"/><path d="m23.62 122.76c9.26 1.56 12.14-1.92 12.14-1.92 3.35-3.82 9.99-10.46 12.82-13.26-6.16-2.25-11.84-5.62-16.61-10.38-5.74-5.74-10.31-14.07-12.44-20.91-6.97 7.26-13 12.62-13.57 13.19-4.03 4.03-2.47 16.05 7.6 26.12 5.9 5.9 11.88 8.69 16.65 9.19-1.99-0.22-4.19-0.83-6.51-1.9l-0.08-0.13z" fill="#427687"/><path d="m42.79 118.02c-0.92 0.89-1.72 1.68-2.4 2.36 0.68-0.67 1.48-1.46 2.4-2.36z" fill="#54646D"/><path d="m38.05 122.7c-0.22 0.22-0.47 0.42-0.73 0.61 0.26-0.19 0.51-0.39 0.73-0.61z" fill="#54646D"/><path d="m36.13 124.01c-0.25 0.12-0.52 0.22-0.79 0.32 0.28-0.1 0.54-0.2 0.79-0.32z" fill="#54646D"/><path d="m37.11 123.46c-0.26 0.18-0.54 0.34-0.83 0.49 0.29-0.15 0.57-0.32 0.83-0.49z" fill="#54646D"/><path d="m43.74 117.09c2.3-2.24 5.18-5.02 8.49-8.15-3.31 3.13-6.19 5.91-8.49 8.15z" fill="#54646D"/><path d="m30.45 124.8c-0.07-0.01-0.14-0.01-0.22-0.02 0.07 0.01 0.15 0.02 0.22 0.02z" fill="#54646D"/><path d="m33.54 124.75c-0.19 0.03-0.38 0.05-0.57 0.07 0.19-0.02 0.38-0.04 0.57-0.07z" fill="#54646D"/><path d="m32.3 124.86h-0.36c0.12 0.01 0.24 0.01 0.36 0z" fill="#54646D"/><path d="m34.97 124.45c-0.25 0.07-0.51 0.14-0.78 0.19 0.27-0.06 0.53-0.12 0.78-0.19z" fill="#54646D"/><path d="m35.77 120.83s-2.89 3.49-12.14 1.92l0.1 0.13c2.32 1.07 4.52 1.68 6.51 1.9 0.07 0.01 0.14 0.01 0.22 0.02 0.51 0.05 1.01 0.07 1.49 0.06h0.36c0.23-0.01 0.45-0.03 0.66-0.04 0.19-0.02 0.38-0.04 0.57-0.07 0.22-0.03 0.44-0.07 0.66-0.11 0.27-0.06 0.53-0.12 0.78-0.19 0.13-0.04 0.25-0.08 0.37-0.12 0.27-0.09 0.54-0.2 0.79-0.32 0.05-0.02 0.1-0.04 0.14-0.06 0.3-0.15 0.57-0.31 0.83-0.49l0.21-0.15c0.26-0.19 0.51-0.39 0.73-0.61 0.4-0.4 1.2-1.2 2.34-2.32 0.68-0.67 1.49-1.46 2.4-2.36 0.3-0.3 0.62-0.61 0.95-0.93 2.3-2.24 5.18-5.02 8.49-8.15 0.05-0.04 0.09-0.08 0.13-0.12-1.28-0.36-2.53-0.79-3.77-1.24-2.83 2.8-9.47 9.44-12.82 13.25z" fill="#2A4E56"/><path d="m71.63 98.63c-1.02-0.47-2.09-1.02-3.15-1.64-6.02-3.54-11.66-7.07-11.66-7.07 0.54 1.92-0.18 2.88 2.59 5.29 1.99 1.72 1.5 4.95-0.9 6-4.83 2.12-7.36 3.78-8.59 5.05 0 0-0.5 0.5-1.33 1.32 1.24 0.45 2.5 0.88 3.77 1.24 0.42-0.4 0.84-0.76 1.24-1.11 0.43-0.37 0.87-0.71 1.3-1.05 8.87-6.82 14.11-2.41 25.05-5.25 0-0.01-3.79-0.69-8.32-2.78zm-10.52 3.93c-0.68 0.37-1.36 0.76-2.04 1.17 0.67-0.41 1.35-0.8 2.04-1.17zm-2.08 1.19c-1.39 0.85-2.77 1.82-4.12 2.89 1.35-1.07 2.73-2.03 4.12-2.89zm9.29-4.21c0.4-0.12 0.79-0.26 1.19-0.37-0.39 0.12-0.79 0.25-1.19 0.37zm-7.09 2.96c0.65-0.35 1.31-0.67 1.96-0.98-0.65 0.3-1.31 0.63-1.96 0.98zm2.24-1.11c0.61-0.28 1.21-0.54 1.82-0.78-0.6 0.24-1.21 0.51-1.82 0.78zm2.34-0.97c0.53-0.2 1.06-0.41 1.59-0.58-0.53 0.17-1.06 0.37-1.59 0.58z" fill="#738A97"/><path d="m20 83.35c-5.72 6.07-12.22 12.74-12.22 12.74s-0.38 5.56 4.8 11.81c0 0 7.02-7.02 13.52-13.29-3.67-4.57-5.38-8.93-6.1-11.26z" fill="#8CAFBF"/><path d="m95.26 100.34c-8.26 8.26-28.9 0.09-47.99-19.01-19.1-19.1-27.27-39.73-19.01-47.99s27.07 1.73 46.17 20.83c19.09 19.1 29.09 37.91 20.83 46.17zm-63.36-63.35c-5.13 5.13 1.41 23.11 19.01 40.7s35.57 24.14 40.7 19.01-1.41-23.11-19.01-40.7-35.57-24.14-40.7-19.01z" fill="#B3D0E0"/><path d="m32.01 53.64c0.93 2.03 2.25 7.29 12.16 19.03 0.34 0.4 1.74 2.21 0.85 3.1-0.59 0.59-1.67-0.13-2.91-1.37-4.84-4.84-9.37-10.97-12.77-18.1-1.92-4.03 1.38-5.46 2.67-2.66z" fill="#B2DFEC"/></svg>

<?xml version="1.0" encoding="utf-8"?>
<!-- Generator: Adobe Illustrator 25.2.3, SVG Export Plug-In . SVG Version: 6.00 Build 0)  -->
<svg version="1.1" id="Layer_1" xmlns="http://www.w3.org/2000/svg" xmlns:xlink="http://www.w3.org/1999/xlink" x="0px" y="0px"
	 viewBox="0 0 128 128" style="enable-background:new 0 0 128 128;" xml:space="preserve">
<g>
	<path style="fill:none;stroke:#B0BEC5;stroke-width:5;stroke-linecap:round;stroke-miterlimit:10;" d="M112.49,81.89
		c13.31-18.03,12.38-43.61-3.44-60.65C93.23,4.19,67.79,1.35,48.82,13.29"/>
	<path style="fill:none;stroke:#B0BEC5;stroke-width:5;stroke-linecap:round;stroke-miterlimit:10;" d="M105.14,76.96"/>
	<path style="fill:none;stroke:#B0BEC5;stroke-width:5;stroke-linecap:round;stroke-miterlimit:10;" d="M102.67,71.15
		c7.66-12.47,6.45-29.03-4-40.28S71.8,17.16,58.8,23.88"/>
	<path style="fill:none;stroke:#B0BEC5;stroke-width:5;stroke-linecap:round;stroke-miterlimit:10;" d="M91.2,37.8"/>
	<path style="fill:none;stroke:#B0BEC5;stroke-width:5;stroke-linecap:round;stroke-miterlimit:10;" d="M92.47,59.64
		c2.11-6.45,0.76-13.82-4.17-19.14c-4.94-5.32-12.19-7.22-18.78-5.59"/>
</g>
<g>
	<g>
		<path style="fill:#8CAFBF;" d="M93.43,98.52c0,0-23.66-6.21-41.21,10.42c-7.55,7.16-12.89,12.47-14.18,13.76
			c-4.03,4.03-14.4,2.96-24.47-7.11s-11.63-22.1-7.6-26.12c0.6-0.6,7.34-6.59,14.82-14.5c7.99-8.46,6.55-20.27,7.06-27.56
			c0.61-8.76,2.22-12.23,2.22-12.23L93.43,98.52z"/>
		
			<ellipse transform="matrix(0.7071 -0.7071 0.7071 0.7071 -29.1715 63.246)" style="fill:#54646D;" cx="61.76" cy="66.84" rx="17.92" ry="44.8"/>
		<path style="fill:#2C3640;" d="M80.73,63.64c0,0-17.36,13.61-8.17,32.67L40.37,69.69l-12.4-26.81l2.11-7.71l10.15-2.5l15.66,7.83
			l18.54,13.67L80.73,63.64z"/>
		<path style="fill:#8CAFBF;" d="M43.92,70.01l8.7-5.97l12.1,12.1l-5.22,9.28C50.08,78.02,43.92,70.01,43.92,70.01z"/>
		
			<ellipse transform="matrix(0.7071 -0.7071 0.7071 0.7071 -32.3768 62.0142)" style="fill:#B2DFEC;" cx="58.67" cy="70.09" rx="4.06" ry="8.56"/>
		<path style="fill:#B2DFEC;" d="M23.59,79.02c3.34-4.36,3.6-6.55,4.73-11.93c3.19,6.97,8.41,13.99,14.48,18.67
			c-2.69,0.92-3.01-0.96-5.51,0.4c-2.08,1.13-3.99,2.54-5.85,4.01c-4.22,3.31,1.9-2.03-1.8,1.75c-0.6,0.62-6.05,6.37-6.05,6.37
			s-3.31-0.57-4.27-2.13c-0.58-0.95-2.13-8.11-2.13-8.11S22.6,80.31,23.59,79.02z"/>
	</g>
</g>
<g>
	<path style="fill:#8CAFBF;" d="M23.57,122.75c-0.04-0.01-0.09-0.01-0.15-0.03c-0.01,0-0.02,0-0.03-0.01
		c-0.01,0-0.03-0.01-0.05-0.01c0.13,0.06,0.26,0.12,0.38,0.18l-0.1-0.13C23.6,122.76,23.59,122.75,23.57,122.75z"/>
	<path style="fill:#8CAFBF;" d="M53.6,107.7c-0.45,0.39-0.91,0.79-1.38,1.24C52.68,108.51,53.14,108.1,53.6,107.7z"/>
	<path style="fill:#738A97;" d="M20.46,122.22c-0.07-0.01-0.13-0.02-0.18-0.03C20.34,122.2,20.4,122.21,20.46,122.22z"/>
	<path style="fill:#738A97;" d="M21.27,122.36c-0.28-0.05-0.56-0.09-0.81-0.14C20.69,122.26,20.96,122.31,21.27,122.36z"/>
	<path style="fill:#738A97;" d="M20.05,122.15c-0.12-0.02-0.23-0.04-0.31-0.05C19.83,122.12,19.93,122.13,20.05,122.15z"/>
	<path style="fill:#738A97;" d="M20.28,122.19c-0.08-0.01-0.16-0.03-0.23-0.04C20.12,122.17,20.19,122.18,20.28,122.19z"/>
	<path style="fill:#738A97;" d="M22.6,122.59c-0.13-0.02-0.25-0.04-0.37-0.06C22.36,122.54,22.48,122.57,22.6,122.59z"/>
	<path style="fill:#738A97;" d="M23.17,122.68c-0.16-0.03-0.35-0.06-0.57-0.1C22.78,122.62,22.97,122.65,23.17,122.68z"/>
	<path style="fill:#738A97;" d="M21.92,122.47c-0.24-0.04-0.46-0.08-0.65-0.11C21.49,122.4,21.71,122.43,21.92,122.47z"/>
	<path style="fill:#738A97;" d="M22.23,122.52c-0.1-0.02-0.2-0.03-0.31-0.05C22.02,122.49,22.13,122.51,22.23,122.52z"/>
	<path style="fill:#738A97;" d="M19.6,122.08c-0.04-0.01-0.06-0.01-0.08-0.01C19.54,122.07,19.57,122.07,19.6,122.08z"/>
	<g>
		<path style="fill:#738A97;" d="M54.91,106.65c-0.43,0.33-0.86,0.67-1.3,1.05C54.03,107.33,54.47,107,54.91,106.65z"/>
	</g>
	<path style="fill:#738A97;" d="M23.17,122.68c0.06,0.01,0.12,0.02,0.17,0.03l0,0C23.28,122.7,23.22,122.69,23.17,122.68z"/>
	<path style="fill:#738A97;" d="M19.74,122.1c-0.06-0.01-0.1-0.02-0.14-0.02C19.64,122.09,19.69,122.09,19.74,122.1z"/>
	<path style="fill:#738A97;" d="M19.53,122.07C19.51,122.06,19.51,122.06,19.53,122.07L19.53,122.07z"/>
	<path style="fill:#738A97;" d="M23.57,122.75c0.02,0,0.03,0.01,0.05,0.01C23.62,122.76,23.6,122.75,23.57,122.75z"/>
	<path style="fill:#738A97;" d="M23.34,122.71L23.34,122.71c0.02,0,0.03,0.01,0.05,0.01C23.37,122.72,23.35,122.71,23.34,122.71z"/>
	<path style="fill:#738A97;" d="M23.38,122.72c0.01,0,0.02,0,0.03,0.01C23.4,122.72,23.39,122.72,23.38,122.72z"/>
	<path style="fill:#738A97;" d="M23.41,122.72c0.07,0.01,0.12,0.02,0.15,0.03C23.51,122.74,23.47,122.73,23.41,122.72z"/>
</g>
<g>
	<path style="fill:#427687;" d="M32.96,124.82c-0.22,0.02-0.44,0.04-0.66,0.04C32.53,124.86,32.75,124.84,32.96,124.82z"/>
	<path style="fill:#427687;" d="M37.32,123.31c-0.07,0.05-0.14,0.1-0.21,0.15C37.18,123.41,37.25,123.36,37.32,123.31z"/>
	<path style="fill:#427687;" d="M36.28,123.95c-0.05,0.02-0.1,0.04-0.14,0.06C36.18,123.99,36.23,123.97,36.28,123.95z"/>
	<path style="fill:#427687;" d="M35.34,124.33c-0.12,0.04-0.25,0.08-0.37,0.12C35.1,124.41,35.22,124.37,35.34,124.33z"/>
	<path style="fill:#427687;" d="M31.94,124.87c-0.48,0-0.98-0.01-1.49-0.06C30.96,124.85,31.46,124.87,31.94,124.87z"/>
	<path style="fill:#427687;" d="M34.19,124.64c-0.21,0.04-0.43,0.08-0.66,0.11C33.76,124.72,33.98,124.68,34.19,124.64z"/>
	<path style="fill:#427687;" d="M52.36,108.82L52.36,108.82c-0.05,0.04-0.09,0.08-0.14,0.12C52.27,108.9,52.32,108.86,52.36,108.82z
		"/>
	<path style="fill:#427687;" d="M23.62,122.76c9.26,1.56,12.14-1.92,12.14-1.92c3.35-3.82,9.99-10.46,12.82-13.26
		c-6.16-2.25-11.84-5.62-16.61-10.38c-5.74-5.74-10.31-14.07-12.44-20.91c-6.97,7.26-13,12.62-13.57,13.19
		c-4.03,4.03-2.47,16.05,7.6,26.12c5.9,5.9,11.88,8.69,16.65,9.19c-1.99-0.22-4.19-0.83-6.51-1.9L23.62,122.76z"/>
	<path style="fill:#54646D;" d="M42.79,118.02c-0.92,0.89-1.72,1.68-2.4,2.36C41.07,119.71,41.87,118.92,42.79,118.02z"/>
	<path style="fill:#54646D;" d="M38.05,122.7c-0.22,0.22-0.47,0.42-0.73,0.61C37.58,123.12,37.83,122.92,38.05,122.7z"/>
	<path style="fill:#54646D;" d="M36.13,124.01c-0.25,0.12-0.52,0.22-0.79,0.32C35.62,124.23,35.88,124.13,36.13,124.01z"/>
	<path style="fill:#54646D;" d="M37.11,123.46c-0.26,0.18-0.54,0.34-0.83,0.49C36.57,123.8,36.85,123.63,37.11,123.46z"/>
	<path style="fill:#54646D;" d="M43.74,117.09c2.3-2.24,5.18-5.02,8.49-8.15l0,0l0,0C48.92,112.07,46.04,114.85,43.74,117.09z"/>
	<path style="fill:#54646D;" d="M30.45,124.8c-0.07-0.01-0.14-0.01-0.22-0.02C30.3,124.79,30.38,124.8,30.45,124.8z"/>
	<path style="fill:#54646D;" d="M33.54,124.75c-0.19,0.03-0.38,0.05-0.57,0.07C33.16,124.8,33.35,124.78,33.54,124.75z"/>
	<path style="fill:#54646D;" d="M32.3,124.86c-0.12,0-0.24,0-0.36,0C32.06,124.87,32.18,124.87,32.3,124.86z"/>
	<path style="fill:#54646D;" d="M34.97,124.45c-0.25,0.07-0.51,0.14-0.78,0.19C34.46,124.58,34.72,124.52,34.97,124.45z"/>
	<path style="fill:#2A4E56;" d="M35.77,120.83c0,0-2.89,3.49-12.14,1.92l0.1,0.13c2.32,1.07,4.52,1.68,6.51,1.9
		c0.07,0.01,0.14,0.01,0.22,0.02c0.51,0.05,1.01,0.07,1.49,0.06c0.12,0,0.24,0,0.36,0c0.23-0.01,0.45-0.03,0.66-0.04
		c0.19-0.02,0.38-0.04,0.57-0.07c0.22-0.03,0.44-0.07,0.66-0.11c0.27-0.06,0.53-0.12,0.78-0.19c0.13-0.04,0.25-0.08,0.37-0.12
		c0.27-0.09,0.54-0.2,0.79-0.32c0.05-0.02,0.1-0.04,0.14-0.06c0.3-0.15,0.57-0.31,0.83-0.49c0.07-0.05,0.14-0.1,0.21-0.15
		c0.26-0.19,0.51-0.39,0.73-0.61c0.4-0.4,1.2-1.2,2.34-2.32c0.68-0.67,1.49-1.46,2.4-2.36c0.3-0.3,0.62-0.61,0.95-0.93
		c2.3-2.24,5.18-5.02,8.49-8.15l0,0c0.05-0.04,0.09-0.08,0.13-0.12c-1.28-0.36-2.53-0.79-3.77-1.24
		C45.76,110.38,39.12,117.02,35.77,120.83z"/>
</g>
<path style="fill:#738A97;" d="M71.63,98.63c-1.02-0.47-2.09-1.02-3.15-1.64c-6.02-3.54-11.66-7.07-11.66-7.07
	c0.54,1.92-0.18,2.88,2.59,5.29c1.99,1.72,1.5,4.95-0.9,6c-4.83,2.12-7.36,3.78-8.59,5.05c0,0-0.5,0.5-1.33,1.32
	c1.24,0.45,2.5,0.88,3.77,1.24c0.42-0.4,0.84-0.76,1.24-1.11c0.43-0.37,0.87-0.71,1.3-1.05c8.87-6.82,14.11-2.41,25.05-5.25
	C79.95,101.4,76.16,100.72,71.63,98.63z M61.11,102.56c-0.68,0.37-1.36,0.76-2.04,1.17C59.74,103.32,60.42,102.93,61.11,102.56z
	 M59.03,103.75c-1.39,0.85-2.77,1.82-4.12,2.89C56.26,105.57,57.64,104.61,59.03,103.75z M68.32,99.54c0.4-0.12,0.79-0.26,1.19-0.37
	C69.12,99.29,68.72,99.42,68.32,99.54z M61.23,102.5c0.65-0.35,1.31-0.67,1.96-0.98C62.54,101.82,61.88,102.15,61.23,102.5z
	 M63.47,101.39c0.61-0.28,1.21-0.54,1.82-0.78C64.69,100.85,64.08,101.12,63.47,101.39z M65.81,100.42c0.53-0.2,1.06-0.41,1.59-0.58
	C66.87,100.01,66.34,100.21,65.81,100.42z"/>
<path style="fill:#8CAFBF;" d="M20,83.35C14.28,89.42,7.78,96.09,7.78,96.09s-0.38,5.56,4.8,11.81c0,0,7.02-7.02,13.52-13.29
	C22.43,90.04,20.72,85.68,20,83.35z"/>
<g>
	<path style="fill:#B3D0E0;" d="M95.26,100.34c-8.26,8.26-28.9,0.09-47.99-19.01C28.17,62.23,20,41.6,28.26,33.34
		s27.07,1.73,46.17,20.83C93.52,73.27,103.52,92.08,95.26,100.34z M31.9,36.99c-5.13,5.13,1.41,23.11,19.01,40.7
		s35.57,24.14,40.7,19.01C96.74,91.57,90.2,73.59,72.6,56S37.03,31.86,31.9,36.99z"/>
</g>
<path style="fill:#B2DFEC;" d="M32.01,53.64c0.93,2.03,2.25,7.29,12.16,19.03c0.34,0.4,1.74,2.21,0.85,3.1
	c-0.59,0.59-1.67-0.13-2.91-1.37c-4.84-4.84-9.37-10.97-12.77-18.1C27.42,52.27,30.72,50.84,32.01,53.64z"/>
</svg>
